libs/ui/packages/crypto-icons/src/svg/UMA.svg

<svg width="24" height="24" viewBox="0 0 24 24" fill="none">
<path d="M14.5241 14.2429H13.7651C13.7309 14.243 13.697 14.2363 13.6654 14.2233C13.6338 14.2102 13.6051 14.1911 13.5809 14.1669C13.5567 14.1427 13.5375 14.114 13.5245 14.0824C13.5115 14.0507 13.5048 14.0169 13.5049 13.9826V11.9861L12.1759 12.8156C12.1211 12.8501 12.0576 12.8685 11.9929 12.8685C11.9281 12.8685 11.8647 12.8501 11.8099 12.8156L10.4884 11.9861V13.9826C10.4884 14.1236 10.3759 14.2429 10.2281 14.2429H9.47589C9.44168 14.243 9.4078 14.2363 9.37618 14.2233C9.34456 14.2102 9.31583 14.1911 9.29164 14.1669C9.26746 14.1427 9.24829 14.114 9.23525 14.0824C9.2222 14.0507 9.21554 14.0169 9.21564 13.9826V10.1299C9.21564 10.0384 9.25199 9.95064 9.31669 9.88594C9.38139 9.82124 9.46914 9.7849 9.56064 9.7849C9.63039 9.7849 9.69339 9.80665 9.74964 9.84865L11.8451 11.2901C11.8869 11.3211 11.9375 11.3379 11.9895 11.3379C12.0415 11.3379 12.0921 11.3211 12.1339 11.2901L14.2286 9.84865C14.2805 9.81395 14.3407 9.79382 14.4029 9.79036C14.4652 9.78691 14.5273 9.80025 14.5826 9.829C14.638 9.85775 14.6846 9.90085 14.7176 9.95378C14.7506 10.0067 14.7687 10.0675 14.7701 10.1299V13.9826C14.7719 14.0161 14.7668 14.0495 14.7552 14.0809C14.7436 14.1123 14.7258 14.1411 14.7028 14.1654C14.6798 14.1897 14.6521 14.2092 14.6214 14.2225C14.5907 14.2358 14.5576 14.2427 14.5241 14.2429ZM8.08314 14.2361H3.37314C3.28164 14.2361 3.19389 14.1998 3.12919 14.1351C3.06449 14.0704 3.02814 13.9826 3.02814 13.8911V10.0174C3.02952 9.94763 3.0583 9.88122 3.10827 9.83252C3.15823 9.78381 3.22536 9.75674 3.29514 9.75715H4.05564C4.19589 9.75715 4.31589 9.86965 4.31589 10.0174V12.9634H7.17039V10.0174C7.17039 9.8764 7.28289 9.75715 7.43064 9.75715H8.16864C8.30964 9.75715 8.42889 9.86965 8.42889 10.0174V13.8919C8.42869 13.9833 8.39225 14.0708 8.32757 14.1354C8.2629 14.1999 8.17526 14.2361 8.08389 14.2361H8.08314ZM15.9161 9.75715H20.6276C20.719 9.75734 20.8066 9.79378 20.8711 9.85846C20.9356 9.92314 20.9719 10.0108 20.9719 10.1021V13.9759C20.9719 14.1169 20.8594 14.2361 20.7184 14.2361H19.9594C19.9252 14.2362 19.8913 14.2296 19.8597 14.2165C19.8281 14.2035 19.7993 14.1843 19.7751 14.1601C19.751 14.136 19.7318 14.1072 19.7187 14.0756C19.7057 14.044 19.699 14.0101 19.6991 13.9759V11.1986C19.6986 11.1541 19.6806 11.1115 19.6491 11.08C19.6175 11.0484 19.575 11.0305 19.5304 11.0299H17.0201C16.9756 11.0305 16.933 11.0484 16.9015 11.08C16.8699 11.1115 16.852 11.1541 16.8514 11.1986V13.9759C16.8514 14.1169 16.7389 14.2361 16.5911 14.2361H15.8321C15.7979 14.2362 15.764 14.2296 15.7324 14.2165C15.7008 14.2035 15.6721 14.1843 15.6479 14.1601C15.6237 14.136 15.6045 14.1072 15.5915 14.0756C15.5785 14.044 15.5718 14.0101 15.5719 13.9759V10.1014C15.5721 10.01 15.6085 9.92247 15.6732 9.85793C15.7379 9.79339 15.8255 9.75715 15.9169 9.75715H15.9161Z" fill="#FF4A4A"/>
<path d="M17.8924 11.8452H18.6446C18.7849 11.8452 18.9049 11.9577 18.9049 12.1054V12.8719C18.9049 13.0129 18.7924 13.1322 18.6446 13.1322H17.8924C17.8582 13.1323 17.8243 13.1256 17.7927 13.1125C17.7611 13.0995 17.7323 13.0803 17.7081 13.0561C17.684 13.032 17.6648 13.0032 17.6518 12.9716C17.6387 12.94 17.632 12.9061 17.6321 12.8719V12.0987C17.6321 11.9577 17.7521 11.8452 17.8924 11.8452Z" fill="#FF4A4A"/>
</svg>

<svg width="24" height="24" viewBox="0 0 24 24" fill="none"><path fill="#ff4a4a" d="M14.524 14.243h-.759a.26.26 0 0 1-.26-.26v-1.997l-1.33.83a.34.34 0 0 1-.365 0l-1.322-.83v1.997a.26.26 0 0 1-.26.26h-.752a.26.26 0 0 1-.26-.26V10.13a.345.345 0 0 1 .345-.345q.104 0 .189.064l2.095 1.441a.24.24 0 0 0 .289 0l2.095-1.441a.348.348 0 0 1 .541.28v3.854a.245.245 0 0 1-.149.24.3.3 0 0 1-.097.02m-6.44-.007h-4.71a.345.345 0 0 1-.346-.345v-3.874a.265.265 0 0 1 .267-.26h.76c.14 0 .26.113.26.26v2.946H7.17v-2.946a.26.26 0 0 1 .26-.26h.739a.26.26 0 0 1 .26.26v3.875a.345.345 0 0 1-.345.344m7.832-4.479h4.712a.345.345 0 0 1 .344.345v3.874c0 .14-.113.26-.254.26h-.759a.26.26 0 0 1-.26-.26v-2.777a.17.17 0 0 0-.169-.17h-2.51a.17.17 0 0 0-.169.17v2.777a.26.26 0 0 1-.26.26h-.759a.26.26 0 0 1-.26-.26V10.1a.345.345 0 0 1 .345-.344"/><path fill="#ff4a4a" d="M17.892 11.845h.753c.14 0 .26.113.26.26v.767a.26.26 0 0 1-.26.26h-.753a.26.26 0 0 1-.26-.26v-.773c0-.141.12-.254.26-.254"/></svg>
